assets/images/logo.svg

<svg xmlns="http://www.w3.org/2000/svg" width="100" height="100" viewBox="0, 0, 100, 100"><path d="M77.696 6.88c4.118.136 8.03.88 11.166 3.716 6.946 6.947 3.989 26.561-7.329 46.814-11.765 21.055-28.456 35.719-41.768 35.719-13.812 0-22.453-4.321-25.525-10.977-2.682-5.812-.848-13.28 5.015-19.143 5.986-5.987 13.13-9.348 18.723-9.348 4.451 0 6.63 1.937 6.63 6.035 0 3.964-2.071 6.035-4.843 6.035-2.773 0-4.844-2.071-4.844-6.035H25.55c0 9.139 6.267 15.406 14.215 15.406 7.947 0 14.214-6.267 14.214-15.406 0-9.535-6.605-15.407-16.001-15.407-8.254 0-17.704 4.447-25.349 12.093-8.487 8.487-11.334 20.082-6.897 29.697 3.239 7.009 9.754 11.56 16.929 13.921H0V59.696h6.333c0-13.314 14.664-30.006 35.717-41.771C53.011 11.853 65.036 7.107 77.696 6.88zM100 36.737c-2.34 8.818-5.775 17.305-10.286 25.244-6.077 10.876-13.744 20.707-21.918 27.888-4.795 4.087-9.939 7.794-15.835 10.131H100V36.737zM60.675 0H0v46.304c2.44-5.344 5.648-10.273 9.593-14.642 7.181-8.174 17.011-15.841 27.886-21.918C44.847 5.717 52.547 2.194 60.675 0zM100 0H89.435c2.222.975 4.248 2.351 6.053 3.969C97.432 5.993 99 8.327 100 10.96V0z" fill="#444"/></svg>

<?xml version="1.0" encoding="UTF-8"?>
<!DOCTYPE svg PUBLIC "-//W3C//DTD SVG 1.1//EN" "http://www.w3.org/Graphics/SVG/1.1/DTD/svg11.dtd">
<svg version="1.1" xmlns="http://www.w3.org/2000/svg" xmlns:xlink="http://www.w3.org/1999/xlink" x="0" y="0" width="100" height="100" viewBox="0, 0, 100, 100">
  <g id="Logo">
    <path d="M77.696,6.88 C81.814,7.016 85.726,7.76 88.862,10.596 C95.808,17.543 92.851,37.157 81.533,57.41 C69.768,78.465 53.077,93.129 39.765,93.129 C25.953,93.129 17.312,88.808 14.24,82.152 C11.558,76.34 13.392,68.872 19.255,63.009 C25.241,57.022 32.385,53.661 37.978,53.661 C42.429,53.661 44.608,55.598 44.608,59.696 C44.608,63.66 42.537,65.731 39.765,65.731 C36.992,65.731 34.921,63.66 34.921,59.696 L25.55,59.696 C25.55,68.835 31.817,75.102 39.765,75.102 C47.712,75.102 53.979,68.835 53.979,59.696 C53.979,50.161 47.374,44.289 37.978,44.289 C29.724,44.289 20.274,48.736 12.629,56.382 C4.142,64.869 1.295,76.464 5.732,86.079 C8.971,93.088 15.486,97.639 22.661,100 L-0,100 L-0,59.696 L6.333,59.696 C6.333,46.382 20.997,29.69 42.05,17.925 C53.011,11.853 65.036,7.107 77.696,6.88 z M100,36.737 C97.66,45.555 94.225,54.042 89.714,61.981 C83.637,72.857 75.97,82.688 67.796,89.869 C63.001,93.956 57.857,97.663 51.961,100 L100,100 L100,36.737 z M60.675,-0 L-0,-0 L-0,46.304 C2.44,40.96 5.648,36.031 9.593,31.662 C16.774,23.488 26.604,15.821 37.479,9.744 C44.847,5.717 52.547,2.194 60.675,-0 z M100,-0 L89.435,-0 C91.657,0.975 93.683,2.351 95.488,3.969 C97.432,5.993 99,8.327 100,10.96 L100,-0 z" fill="#444"/>
  </g>
</svg>
